X:1
T: The Old Man will never Die
C:
R:Strathspey
Q: 128
K:G
M:4/4
L:1/16
|:D2|G3B d3B e4 e3g|dcBA G3B A4 A3B|G3B d3B e4 e3f|g3a g3e B4 B2D2|
G3B d3B e4 e3g|dcBA G3B A4 A3B|G3B d3B e4 e3f|g3a g3e B4 B2d2|
g3a g3e d3e dB3|g3a g3e a3g ab3|g3a g3e d3e gb3|a3f g3e B4 B3d|
g3a g3e d3e dB3|g3a g3e a3g ab3|g3b e3g d3e g3b|a3f g3e B4 B2:|
